launcher/android/assets/skins/day/svg/cache.svg

<svg enable-background="new 0 0 88.00 76.00" height="76" viewBox="0 0 88 76" width="88" xmlns="http://www.w3.org/2000/svg" xmlns:xlink="http://www.w3.org/1999/xlink"><linearGradient id="a" gradientTransform="matrix(0 1 -1 0 .228961 -.778777)" gradientUnits="objectBoundingBox" x1=".503869" x2="2.05368" y1="-.274908" y2="-.274908"><stop offset=".316279" stop-color="#f0f1ec" stop-opacity=".592157"/><stop offset=".800003" stop-color="#fff" stop-opacity="0"/></linearGradient><linearGradient id="b" gradientTransform="matrix(-.986419426397 .164245898658 -.164245898658 -.986419426397 1.939424360163 .714189860202)" gradientUnits="objectBoundingBox" x1=".940186" x2="2.52462" y1=".437275" y2=".437275"><stop offset=".274419" stop-color="#f0f1ec" stop-opacity=".501961"/><stop offset=".562791" stop-color="#fff" stop-opacity="0"/></linearGradient><linearGradient id="c" gradientTransform="matrix(-.193078162259 .981183379017 -.981183379017 -.193078162259 .425264749139 -.550952267695)" gradientUnits="objectBoundingBox" x1=".439183" x2="1.62553" y1="-.100608" y2="-.100608"><stop offset=".451163" stop-color="#231f1f" stop-opacity=".403922"/><stop offset=".865116" stop-color="#6c6464" stop-opacity=".0588235"/></linearGradient><linearGradient id="d" gradientTransform="matrix(0 1 -1 0 .646301 -.340623)" gradientUnits="objectBoundingBox" x1=".493462" x2="1.20224" y1=".152839" y2=".152839"><stop offset=".116279" stop-color="#231e1e"/><stop offset="1" stop-color="#262323"/></linearGradient><linearGradient id="e" gradientTransform="matrix(0 1 -1 0 .636171 -.350207)" gradientUnits="objectBoundingBox" x1=".493189" x2="1.22209" y1=".142982" y2=".142982"><stop offset=".111628" stop-color="#262a27"/><stop offset="1" stop-color="#606561"/></linearGradient><linearGradient id="f" gradientTransform="matrix(.308053359691 -.951369080632 .951369080632 .308053359691 -.791853640341 1.089651103675)" gradientUnits="objectBoundingBox" x1=".353163" x2="1.58211" y1="1.08919" y2="1.08919"><stop offset=".227907"/><stop offset="1" stop-color="#fff"/></linearGradient><linearGradient id="g" gradientTransform="matrix(.309904610954 -.950767654114 .950767654114 .309904610954 -.816807128985 1.098731315183)" gradientUnits="objectBoundingBox" x1=".348476" x2="1.62468" y1="1.11204" y2="1.11204"><stop offset=".232558" stop-color="#171f18"/><stop offset="1" stop-color="#989d99"/></linearGradient><g stroke-linejoin="round"><path d="m13.4792 2.43747h61c6.0751 0 11 4.92487 11 11.00003v49.6667c0 6.0751-4.9249 11-11 11h-61c-6.07517 0-11.00004-4.9249-11.00004-11v-49.6667c0-6.07516 4.92487-11.00003 11.00004-11.00003z" fill="#8c9e64" stroke="#000"/><g stroke-width=".2"><path d="m73.499 4.92154h-58.1111c-3.034 0-6.8082.84714-9.5754 4.64534h.06589c.06588 35.59882 18.16601 35.71982 38.54311 35.71982 20.377 0 37.6866-.3444 38.016-35.80359v.02792c-1.4495-2.06667-3.3602-4.18919-8.9385-4.58949z" fill="url(#a)"/><path d="m73.2684 4.87499-16.9875 1.86187c-3.0339 0-19.1508-1.78743-21.918 2.01077l-8.0819 11.91597c4.3585 7.0054 19.6778-2.0853 22.0497-3.8354 23.631-3.0163 33.5468 28.0675 33.8762-7.39164v.02792c-1.4495-2.06666-3.3602-4.18918-8.9385-4.58949z" fill="url(#b)"/><path d="m44.0826 71.2111 26.1712-29.5264-16.9643-14.3386-38.5916 28.5997z" fill="url(#c)"/></g><path d="m53.39 39.9477 19.0918-17.3034c-.0664-1.3383.1599-.7538.1599 2.0569l.0639 2.0039c.2557 4.0078-3.4839 6.7432-1.8219 4.9938l-21.5851 24.9585c-.9375 1.6964-.5114-.9335.1705-5.2589l-.0852-3.4776c0-2.8108-1.1966-8.1884 4.0061-7.9732z" fill="url(#e)" stroke="url(#d)"/><path d="m24.8197 33.4469 21.4133 5.4235c2.7826 0 3.023 1.3138 3.023 4.1001v11.8561c0 2.7863-1.906 4.1465-6.6925 2.3807l-21.0817-7.0484c-4.4508-1.5186-3.4642-10.2416-3.4639-11.3515v-5.3605c0-2.7863 4.0192 0 6.8018 0z" fill="url(#g)" stroke="url(#f)"/><path d="m49.6396 32.001 13.2643-10.3693-15.0862-2.1788-14.3989 8.922z" fill="#f9cc3e" stroke-width=".2"/><path d="m29.0043 31.477 6.0419 1.4791c2.7426.6714 4.419 3.4282 3.7444 6.1576l-.2149.869c-.6746 2.7293-1.8976 4.994-4.6402 4.3226l-8.7577-2.5764c-2.7425-.6714-3.2504-2.9273-2.5757-5.6566l.2148-.869c.6746-2.7294 3.4449-4.3977 6.1874-3.7263z" fill="#ddb637" stroke="#b29331"/><path d="m46.9228 15.3019-30.0018 16.7945 32.5268 9.0811 25.2501-22.3926zm.6552 2.8786 18.9855 2.5287-16.5724 12.914-20.2853-4.4955z" fill="#ddb637" stroke="#ddb637" stroke-width="3"/><path d="m62.8932 21.0486-15.182-2.0039-14.6387 8.7153.6305.1355 14.0721-8.5963 14.7796 2.0013z" fill="#967d2d" stroke="#b29331"/><path d="m22.9085 35.8286 15.5656 4.3576" fill="none" stroke="#6c5b24"/><path d="m22.8126 36.1944 15.5656 4.3577" fill="none" stroke="#b29331"/></g></svg>

﻿<?xml version="1.0" encoding="utf-8"?>
<!DOCTYPE svg PUBLIC "-//W3C//DTD SVG 1.1//EN" "http://www.w3.org/Graphics/SVG/1.1/DTD/svg11.dtd">
<svg xmlns="http://www.w3.org/2000/svg" xmlns:xlink="http://www.w3.org/1999/xlink" version="1.1" baseProfile="full" width="88" height="76" viewBox="0 0 88.00 76.00" enable-background="new 0 0 88.00 76.00" xml:space="preserve">
	<path fill="#8C9E64" fill-opacity="1" stroke-linejoin="round" stroke="#000000" stroke-opacity="1" d="M 13.4792,2.43747L 74.4792,2.43747C 80.5543,2.43747 85.4792,7.36234 85.4792,13.4375L 85.4792,63.1042C 85.4792,69.1793 80.5543,74.1042 74.4792,74.1042L 13.4792,74.1042C 7.40403,74.1042 2.47916,69.1793 2.47916,63.1042L 2.47916,13.4375C 2.47916,7.36234 7.40403,2.43747 13.4792,2.43747 Z "/>
	<linearGradient id="SVGID_Fill1_" gradientUnits="objectBoundingBox" x1="0.503869" y1="-0.274908" x2="2.05368" y2="-0.274908" gradientTransform="rotate(90.000000 0.503869 -0.274908)">
		<stop offset="0.316279" stop-color="#F0F1EC" stop-opacity="0.592157"/>
		<stop offset="0.800003" stop-color="#FFFFFF" stop-opacity="0"/>
	</linearGradient>
	<path fill="url(#SVGID_Fill1_)" stroke-width="0.2" stroke-linejoin="round" d="M 73.499,4.92154L 15.3879,4.92154C 12.3539,4.92154 8.5797,5.76868 5.8125,9.56688L 5.87839,9.56688C 5.94427,45.1657 24.0444,45.2867 44.4215,45.2867C 64.7985,45.2867 82.1081,44.9423 82.4375,9.48311L 82.4375,9.51103C 80.988,7.44436 79.0773,5.32184 73.499,4.92154 Z "/>
	<linearGradient id="SVGID_Fill2_" gradientUnits="objectBoundingBox" x1="0.940186" y1="0.437275" x2="2.52462" y2="0.437275" gradientTransform="rotate(170.546570 0.940186 0.437275)">
		<stop offset="0.274419" stop-color="#F0F1EC" stop-opacity="0.501961"/>
		<stop offset="0.562791" stop-color="#FFFFFF" stop-opacity="0"/>
	</linearGradient>
	<path fill="url(#SVGID_Fill2_)" stroke-width="0.2" stroke-linejoin="round" d="M 73.2684,4.87499L 56.2809,6.73686C 53.247,6.73686 37.1301,4.94943 34.3629,8.74763L 26.281,20.6636C 30.6395,27.669 45.9588,18.5783 48.3307,16.8282C 71.9617,13.8119 81.8775,44.8957 82.2069,9.43656L 82.2069,9.46448C 80.7574,7.39782 78.8467,5.2753 73.2684,4.87499 Z "/>
	<g>
		<linearGradient id="SVGID_Fill3_" gradientUnits="objectBoundingBox" x1="0.439183" y1="-0.100608" x2="1.62553" y2="-0.100608" gradientTransform="rotate(101.132477 0.439183 -0.100608)">
			<stop offset="0.451163" stop-color="#231F1F" stop-opacity="0.403922"/>
			<stop offset="0.865116" stop-color="#6C6464" stop-opacity="0.0588235"/>
		</linearGradient>
		<path fill="url(#SVGID_Fill3_)" stroke-width="0.2" stroke-linejoin="round" d="M 44.0826,71.2111L 70.2538,41.6847L 53.2895,27.3461L 14.6979,55.9458L 44.0826,71.2111 Z "/>
		<linearGradient id="SVGID_Stroke1_" gradientUnits="objectBoundingBox" x1="0.493462" y1="0.152839" x2="1.20224" y2="0.152839" gradientTransform="rotate(90.000000 0.493462 0.152839)">
			<stop offset="0.116279" stop-color="#231E1E" stop-opacity="1"/>
			<stop offset="1" stop-color="#262323" stop-opacity="1"/>
		</linearGradient>
		<linearGradient id="SVGID_Fill4_" gradientUnits="objectBoundingBox" x1="0.493189" y1="0.142982" x2="1.22209" y2="0.142982" gradientTransform="rotate(90.000000 0.493189 0.142982)">
			<stop offset="0.111628" stop-color="#262A27" stop-opacity="1"/>
			<stop offset="1" stop-color="#606561" stop-opacity="1"/>
		</linearGradient>
		<path fill="url(#SVGID_Fill4_)" stroke-linejoin="round" stroke="url(#SVGID_Stroke1_)" d="M 53.39,39.9477L 72.4818,22.6443C 72.4154,21.306 72.6417,21.8905 72.6417,24.7012L 72.7056,26.7051C 72.9613,30.7129 69.2217,33.4483 70.8837,31.6989L 49.2986,56.6574C 48.3611,58.3538 48.7872,55.7239 49.4691,51.3985L 49.3839,47.9209C 49.3839,45.1101 48.1873,39.7325 53.39,39.9477 Z "/>
		<linearGradient id="SVGID_Stroke2_" gradientUnits="objectBoundingBox" x1="0.353163" y1="1.08919" x2="1.58211" y2="1.08919" gradientTransform="rotate(-72.058044 0.353163 1.089192)">
			<stop offset="0.227907" stop-color="#000000" stop-opacity="1"/>
			<stop offset="1" stop-color="#FFFFFF" stop-opacity="1"/>
		</linearGradient>
		<linearGradient id="SVGID_Fill5_" gradientUnits="objectBoundingBox" x1="0.348476" y1="1.11204" x2="1.62468" y2="1.11204" gradientTransform="rotate(-71.946518 0.348476 1.112037)">
			<stop offset="0.232558" stop-color="#171F18" stop-opacity="1"/>
			<stop offset="1" stop-color="#989D99" stop-opacity="1"/>
		</linearGradient>
		<path fill="url(#SVGID_Fill5_)" stroke-linejoin="round" stroke="url(#SVGID_Stroke2_)" d="M 24.8197,33.4469L 46.233,38.8704C 49.0156,38.8704 49.256,40.1842 49.256,42.9705L 49.256,54.8266C 49.256,57.6129 47.35,58.9731 42.5635,57.2073L 21.4818,50.1589C 17.031,48.6403 18.0176,39.9173 18.0179,38.8074L 18.0179,33.4469C 18.0179,30.6606 22.0371,33.4469 24.8197,33.4469 Z "/>
		<path fill="#F9CC3E" fill-opacity="1" stroke-width="0.2" stroke-linejoin="round" d="M 49.6396,32.001L 62.9039,21.6317L 47.8177,19.4529L 33.4188,28.3749L 49.6396,32.001 Z "/>
		<path fill="#DDB637" fill-opacity="1" stroke-linejoin="round" stroke="#B29331" stroke-opacity="1" d="M 29.0043,31.477L 35.0462,32.9561C 37.7888,33.6275 39.4652,36.3843 38.7906,39.1137L 38.5757,39.9827C 37.9011,42.712 36.6781,44.9767 33.9355,44.3053L 25.1778,41.7289C 22.4353,41.0575 21.9274,38.8016 22.6021,36.0723L 22.8169,35.2033C 23.4915,32.4739 26.2618,30.8056 29.0043,31.477 Z "/>
		<path fill="#DDB637" fill-opacity="1" stroke-width="3" stroke-linejoin="round" stroke="#DDB637" stroke-opacity="1" d="M 46.9228,15.3019L 16.921,32.0964L 49.4478,41.1775L 74.6979,18.7849L 46.9228,15.3019 Z M 47.578,18.1805L 66.5635,20.7092L 49.9911,33.6232L 29.7058,29.1277L 47.578,18.1805 Z "/>
		<path fill="#967D2D" fill-opacity="1" stroke-linejoin="round" stroke="#B29331" stroke-opacity="1" d="M 62.8932,21.0486L 47.7112,19.0447L 33.0725,27.76L 33.703,27.8955L 47.7751,19.2992L 62.5547,21.3005L 62.8932,21.0486 Z "/>
		<line fill="none" stroke-linejoin="round" stroke="#6C5B24" stroke-opacity="1" x1="22.9085" y1="35.8286" x2="38.4741" y2="40.1862"/>
		<line fill="none" stroke-linejoin="round" stroke="#B29331" stroke-opacity="1" x1="22.8126" y1="36.1944" x2="38.3782" y2="40.5521"/>
	</g>
</svg>
